X: 126002
T: MY HEATHER HILLS
%R: reel, hornpipe
B: James Kerr "Merry Melodies" v.1 p.26 s.0 #2
Z: 2017 John Chambers <jc:trillian.mit.edu>
M: C
L: 1/8
K: D
|: (de) |\
fgfe dedB | A2F2 F2(FE) |\
DFAd gfed | cdef e2(de) |\
fgfe dedB | A2F2 F2(FE) |\
DFAd c2(Bc) | d2d2d2 H:|
(ef) |\
gfeg fedf | edce Adfa |\
gfeg fedf | e2a2 a2(ef) |\
gfeg fedf | edce dcBd |\
cBAc BA^GB | BA^GA Bc"_D.C."de |]

%%sep 1 1 500
%%sep 1 1 500

